wp-content/themes/ecoexplore/dist/images/icon-facebook_2c255cc0.svg

<svg xmlns="http://www.w3.org/2000/svg" width="14" height="14" viewBox="0 0 14 14">
  <g fill="none" fill-rule="evenodd">
    <rect width="14" height="14"/>
    <path fill="#000349" d="M7.58333333,4.6375 L9.74166667,4.6375 L9.47916667,7 L7.58333333,7 L7.58333333,13.8541667 L4.75416667,13.8541667 L4.75416667,7 L3.325,7 L3.325,4.6375 L4.75416667,4.6375 L4.75416667,3.20833333 C4.75416667,2.19721717 4.98749767,1.42916929 5.45416667,0.904166667 C5.94028021,0.398608583 6.72777233,0.145833333 7.81666667,0.145833333 L9.7125,0.145833333 L9.7125,2.50833333 L8.54583333,2.50833333 C8.27360975,2.50833333 8.0986115,2.52777758 8.02083333,2.56666667 C7.88472154,2.58611121 7.78750029,2.64444396 7.72916667,2.74166667 C7.69027758,2.81944483 7.65138908,2.91666608 7.6125,3.03333333 C7.6125,3.05277788 7.60763894,3.11111063 7.59791667,3.20833333 C7.5881944,3.30555604 7.58333333,3.38333304 7.58333333,3.44166667 L7.58333333,4.6375 Z"/>
  </g>
</svg>

<svg xmlns="http://www.w3.org/2000/svg" width="14" height="14" viewBox="0 0 14 14"><g fill="none" fill-rule="evenodd"><path d="M0 0h14v14H0z"/><path fill="#000349" d="M7.583 4.638h2.159L9.479 7H7.583v6.854H4.754V7H3.325V4.638h1.43v-1.43c0-1.01.232-1.779.7-2.304C5.94.4 6.727.146 7.816.146h1.896v2.362H8.546c-.272 0-.447.02-.525.059-.136.02-.233.077-.292.175a2.263 2.263 0 0 0-.117.291c0 .02-.004.078-.014.175a2.41 2.41 0 0 0-.015.234v1.196z"/></g></svg>
